; G-Code generated by Simplify3D(R) Version 3.0.2
; May 30, 2016 at 5:26:14 PM
; Settings Summary
;   processName,Process1
;   applyToModels,ABS_TEMP_TRI,ABS_TEMP_TRI(2),ABS_TEMP_TRI(3)
;   profileName,Tarantula (modified)
;   profileVersion,2016-04-05 21:38:38
;   baseProfile,Default
;   printMaterial,PLA
;   printQuality,High
;   printExtruders,
;   extruderName,Extruder 1
;   extruderToolheadNumber,0
;   extruderDiameter,0.4
;   extruderAutoWidth,0
;   extruderWidth,0.4
;   extrusionMultiplier,1
;   extruderUseRetract,1
;   extruderRetractionDistance,6
;   extruderExtraRestartDistance,0
;   extruderRetractionZLift,0
;   extruderRetractionSpeed,7200
;   extruderUseCoasting,1
;   extruderCoastingDistance,0.25
;   extruderUseWipe,0
;   extruderWipeDistance,5
;   primaryExtruder,0
;   layerHeight,0.2
;   topSolidLayers,0
;   bottomSolidLayers,0
;   perimeterOutlines,1
;   printPerimetersInsideOut,1
;   startPointOption,2
;   startPointOriginX,0
;   startPointOriginY,0
;   startPointOriginZ,300
;   sequentialIslands,0
;   spiralVaseMode,0
;   firstLayerHeightPercentage,60
;   firstLayerWidthPercentage,100
;   firstLayerUnderspeed,0.5
;   useRaft,1
;   raftExtruder,0
;   raftLayers,3
;   raftOffset,1
;   raftSeparationDistance,0.14
;   raftInfill,50
;   disableRaftBaseLayers,0
;   useSkirt,1
;   skirtExtruder,0
;   skirtLayers,1
;   skirtOutlines,5
;   skirtOffset,0
;   usePrimePillar,0
;   primePillarExtruder,999
;   primePillarWidth,12
;   primePillarLocation,7
;   primePillarSpeedMultiplier,1
;   useOozeShield,0
;   oozeShieldExtruder,999
;   oozeShieldOffset,2
;   oozeShieldOutlines,1
;   oozeShieldSidewallShape,1
;   oozeShieldSidewallAngle,30
;   oozeShieldSpeedMultiplier,1
;   infillExtruder,0
;   internalInfillPattern,Fast Honeycomb
;   externalInfillPattern,Rectilinear
;   infillPercentage,0
;   outlineOverlapPercentage,10
;   infillExtrusionWidthPercentage,100
;   minInfillLength,2
;   infillLayerInterval,1
;   infillAngles,0
;   overlapInfillAngles,0
;   generateSupport,0
;   supportExtruder,0
;   supportInfillPercentage,25
;   supportExtraInflation,0
;   denseSupportLayers,0
;   denseSupportInfillPercentage,25
;   supportLayerInterval,1
;   supportHorizontalPartOffset,0.3
;   supportUpperSeparationLayers,1
;   supportLowerSeparationLayers,1
;   supportType,0
;   supportGridSpacing,4
;   maxOverhangAngle,65
;   supportAngles,0
;   temperatureName,Extruder 1 Temperature,Heated Bed
;   temperatureNumber,0,0
;   temperatureSetpointCount,1,1
;   temperatureSetpointLayers,1,1
;   temperatureSetpointTemperatures,230,68
;   temperatureStabilizeAtStartup,1,1
;   temperatureHeatedBed,0,1
;   temperatureRelayBetweenLayers,0,0
;   temperatureRelayBetweenLoops,0,0
;   fanLayers,1,2
;   fanSpeeds,0,100
;   blipFanToFullPower,0
;   adjustSpeedForCooling,1
;   minSpeedLayerTime,15
;   minCoolingSpeedSlowdown,20
;   increaseFanForCooling,0
;   minFanLayerTime,45
;   maxCoolingFanSpeed,100
;   increaseFanForBridging,0
;   bridgingFanSpeed,100
;   use5D,1
;   relativeEdistances,0
;   allowEaxisZeroing,1
;   independentExtruderAxes,0
;   includeM10123,0
;   stickySupport,1
;   applyToolheadOffsets,0
;   gcodeXoffset,0
;   gcodeYoffset,0
;   gcodeZoffset,0
;   overrideMachineDefinition,1
;   machineTypeOverride,0
;   strokeXoverride,200
;   strokeYoverride,280
;   strokeZoverride,200
;   originOffsetXoverride,0
;   originOffsetYoverride,0
;   originOffsetZoverride,0
;   homeXdirOverride,-1
;   homeYdirOverride,-1
;   homeZdirOverride,-1
;   flipXoverride,1
;   flipYoverride,-1
;   flipZoverride,1
;   toolheadOffsets,0,0|0,0|0,0|0,0|0,0|0,0
;   overrideFirmwareConfiguration,1
;   firmwareTypeOverride,RepRap (Marlin/Repetier/Sprinter)
;   GPXconfigOverride,r2
;   baudRateOverride,115200
;   overridePrinterModels,0
;   printerModelsOverride
;   startingGcode,G28 ; home all axes
;   layerChangeGcode,
;   retractionGcode,
;   toolChangeGcode,
;   endingGcode,M104 S0 ; turn off extruder,M140 S0 ; turn off bed,,G91 ;relative positioning,G1 E-1 F300 ;retract the filament a bit before lifting the nozzle, to release some of the pressure,G1 Z+0.5 E-5 X-20 Y-20 F{travel_speed} ;move Z up a bit and retract filament even more,G1 Z200;Move straight up,G1 X200;Move to the extruder right,G1 Y280;Move to the bed forward,M84 ;steppers off,G90;absolute positioning
;   createX3G,0
;   celebration,0
;   celebrationSong,Random Song
;   createMB5G,0
;   postProcessing,
;   defaultSpeed,7200
;   outlineUnderspeed,1
;   solidInfillUnderspeed,1
;   supportUnderspeed,1
;   rapidXYspeed,12000
;   rapidZspeed,12000
;   minBridgingArea,10
;   bridgingExtraInflation,1
;   bridgingExtrusionMultiplier,1.4
;   bridgingSpeedMultiplier,1.25
;   filamentDiameter,1.75
;   filamentPricePerKg,25
;   filamentDensity,1.25
;   useMinPrintHeight,1
;   minPrintHeight,0
;   useMaxPrintHeight,1
;   maxPrintHeight,10
;   useDiaphragm,0
;   diaphragmLayerInterval,20
;   robustSlicing,1
;   mergeAllIntoSolid,0
;   onlyRetractWhenCrossingOutline,1
;   retractBetweenLayers,1
;   useRetractionMinTravel,0
;   retractionMinTravel,3
;   retractWhileWiping,0
;   onlyWipeOutlines,1
;   avoidCrossingOutline,1
;   maxMovementDetourFactor,2
;   toolChangeRetractionDistance,12
;   toolChangeExtraRestartDistance,-0.5
;   toolChangeRetractionSpeed,600
;   allowThinWallGapFill,1
;   thinWallAllowedOverlapPercentage,10
;   horizontalSizeCompensation,0
G90
M82
M106 S0
M140 S68
M190 S68
M104 S230 T0
M109 S230 T0
G28 ; home all axes
G92 E0
G1 E-6.0000 F7200
G1 Z0.300 F12000
; layer 1, Z = 0.3
T0
; tool H0.500 W0.400
; skirt
G1 X57.786 Y122.700 F12000
G1 E0.0000 F2160
G92 E0
G1 X91.082 Y122.700 E2.7686 F3600
G1 X91.917 Y123.182 E2.8488
G1 X94.132 Y127.018 E3.2171
G1 X94.132 Y127.982 E3.2973
G1 X86.055 Y141.971 E4.6404
G1 X77.484 Y156.818 E6.0659
G1 X76.648 Y157.300 E6.1461
G1 X72.219 Y157.300 E6.5143
G1 X71.384 Y156.818 E6.5945
G1 X66.169 Y147.784 E7.4618
G1 X65.673 Y147.850 E7.5034
G1 X62.580 Y147.021 E7.7696
G1 X62.012 Y146.585 E7.8292
G1 X58.912 Y141.215 E8.3448
G1 X58.818 Y140.505 E8.4044
G1 X59.647 Y137.412 E8.6706
G1 X59.951 Y137.016 E8.7122
G1 X54.736 Y127.982 E9.5795
G1 X54.736 Y127.018 E9.6597
G1 X56.950 Y123.182 E10.0279
G1 X57.569 Y122.825 E10.0874
G1 X57.786 Y122.700 F3600
G1 X114.736 Y127.018 F12000
G92 E0
G1 X116.950 Y123.182 E0.3682 F3600
G1 X117.786 Y122.700 E0.4485
G1 X151.082 Y122.700 E3.2171
G1 X151.917 Y123.182 E3.2973
G1 X154.132 Y127.018 E3.6655
G1 X154.132 Y127.982 E3.7457
G1 X146.055 Y141.971 E5.0888
G1 X137.484 Y156.818 E6.5143
G1 X136.648 Y157.300 E6.5945
G1 X132.219 Y157.300 E6.9628
G1 X131.384 Y156.818 E7.0430
G1 X126.169 Y147.784 E7.9103
G1 X125.673 Y147.850 E7.9519
G1 X122.580 Y147.021 E8.2181
G1 X122.012 Y146.585 E8.2776
G1 X118.912 Y141.215 E8.7933
G1 X118.818 Y140.505 E8.8528
G1 X119.647 Y137.412 E9.1190
G1 X119.951 Y137.016 E9.1606
G1 X114.736 Y127.982 E10.0279
G1 X114.736 Y127.268 E10.0874
G1 X114.736 Y127.018 F3600
G1 X121.082 Y175.200 F12000
G92 E0
G1 X121.917 Y175.682 E0.0802 F3600
G1 X124.132 Y179.518 E0.4485
G1 X124.132 Y180.482 E0.5287
G1 X116.055 Y194.471 E1.8718
G1 X107.484 Y209.318 E3.2973
G1 X106.648 Y209.800 E3.3775
G1 X102.219 Y209.800 E3.7457
G1 X101.384 Y209.318 E3.8259
G1 X96.169 Y200.284 E4.6932
G1 X95.673 Y200.350 E4.7348
G1 X92.580 Y199.521 E5.0010
G1 X92.012 Y199.085 E5.0606
G1 X88.912 Y193.715 E5.5762
G1 X88.818 Y193.005 E5.6358
G1 X89.647 Y189.912 E5.9020
G1 X89.951 Y189.516 E5.9436
G1 X84.736 Y180.482 E6.8109
G1 X84.736 Y179.518 E6.8911
G1 X86.950 Y175.682 E7.2593
G1 X87.786 Y175.200 E7.3395
G1 X120.832 Y175.200 E10.0874
G1 X121.082 Y175.200 F3600
G1 X120.975 Y175.600 F12000
G92 E0
G1 X121.624 Y175.975 E0.0624 F3600
G1 X123.732 Y179.625 E0.4128
G1 X123.732 Y180.375 E0.4752
G1 X115.709 Y194.271 E1.8094
G1 X107.191 Y209.025 E3.2260
G1 X106.541 Y209.400 E3.2883
G1 X102.327 Y209.400 E3.6388
G1 X101.677 Y209.025 E3.7012
G1 X96.356 Y199.810 E4.5860
G1 X96.251 Y199.870 E4.5960
G1 X95.699 Y199.943 E4.6423
G1 X92.761 Y199.155 E4.8953
G1 X92.319 Y198.816 E4.9416
G1 X89.298 Y193.584 E5.4440
G1 X89.225 Y193.031 E5.4903
G1 X90.012 Y190.093 E5.7433
G1 X90.352 Y189.651 E5.7896
G1 X90.456 Y189.590 E5.7997
G1 X85.136 Y180.375 E6.6845
G1 X85.136 Y179.625 E6.7469
G1 X87.243 Y175.975 E7.0973
G1 X87.893 Y175.600 E7.1597
G1 X120.725 Y175.600 E9.8897
G1 X120.975 Y175.600 F3600
G1 X131.677 Y156.525 F12000
G92 E0
G1 X126.356 Y147.310 E0.8848 F3600
G1 X126.252 Y147.370 E0.8949
G1 X125.699 Y147.443 E0.9412
G1 X122.761 Y146.655 E1.1941
G1 X122.319 Y146.316 E1.2405
G1 X119.298 Y141.084 E1.7429
G1 X119.225 Y140.531 E1.7892
G1 X120.012 Y137.593 E2.0421
G1 X120.352 Y137.151 E2.0885
G1 X120.456 Y137.090 E2.0985
G1 X115.136 Y127.875 E2.9833
G1 X115.136 Y127.125 E3.0457
G1 X117.243 Y123.475 E3.3961
G1 X117.893 Y123.100 E3.4585
G1 X150.975 Y123.100 E6.2093
G1 X151.624 Y123.475 E6.2717
G1 X153.732 Y127.125 E6.6221
G1 X153.732 Y127.875 E6.6845
G1 X145.709 Y141.771 E8.0187
G1 X137.191 Y156.525 E9.4352
G1 X136.541 Y156.900 E9.4976
G1 X132.327 Y156.900 E9.8481
G1 X131.893 Y156.650 E9.8896
G1 X131.677 Y156.525 F3600
G1 X93.732 Y127.875 F12000
G92 E0
G1 X85.709 Y141.771 E1.3342 F3600
G1 X77.191 Y156.525 E2.7508
G1 X76.541 Y156.900 E2.8132
G1 X72.327 Y156.900 E3.1636
G1 X71.677 Y156.525 E3.2260
G1 X66.356 Y147.310 E4.1108
G1 X66.252 Y147.370 E4.1208
G1 X65.699 Y147.443 E4.1671
G1 X62.761 Y146.655 E4.4201
G1 X62.319 Y146.316 E4.4664
G1 X59.298 Y141.084 E4.9688
G1 X59.225 Y140.531 E5.0151
G1 X60.012 Y137.593 E5.2681
G1 X60.352 Y137.151 E5.3144
G1 X60.456 Y137.090 E5.3245
G1 X55.136 Y127.875 E6.2093
G1 X55.136 Y127.125 E6.2717
G1 X57.243 Y123.475 E6.6221
G1 X57.893 Y123.100 E6.6845
G1 X90.975 Y123.100 E9.4352
G1 X91.624 Y123.475 E9.4976
G1 X93.732 Y127.125 E9.8481
G1 X93.732 Y127.625 E9.8897
G1 X93.732 Y127.875 F3600
G1 X93.332 Y127.768 F12000
G92 E0
G1 X85.362 Y141.571 E1.3253 F3600
G1 X76.898 Y156.232 E2.7329
G1 X76.434 Y156.500 E2.7775
G1 X72.434 Y156.500 E3.1101
G1 X71.970 Y156.232 E3.1547
G1 X66.503 Y146.763 E4.0638
G1 X66.120 Y146.984 E4.1005
G1 X65.726 Y147.036 E4.1336
G1 X62.941 Y146.290 E4.3733
G1 X62.626 Y146.047 E4.4064
G1 X59.684 Y140.952 E4.8956
G1 X59.632 Y140.558 E4.9287
G1 X60.378 Y137.773 E5.1684
G1 X60.620 Y137.458 E5.2015
G1 X61.003 Y137.237 E5.2382
G1 X55.536 Y127.768 E6.1473
G1 X55.536 Y127.232 E6.1919
G1 X57.536 Y123.768 E6.5245
G1 X58.000 Y123.500 E6.5691
G1 X90.868 Y123.500 E9.3020
G1 X91.332 Y123.768 E9.3466
G1 X93.332 Y127.232 E9.6792
G1 X93.332 Y127.518 E9.7029
G1 X93.332 Y127.768 F3600
G1 X115.536 Y127.768 F12000
G92 E0
G1 X115.536 Y127.232 E0.0446 F3600
G1 X117.536 Y123.768 E0.3772
G1 X118.000 Y123.500 E0.4217
G1 X150.868 Y123.500 E3.1547
G1 X151.332 Y123.768 E3.1992
G1 X153.332 Y127.232 E3.5318
G1 X153.332 Y127.768 E3.5764
G1 X145.362 Y141.571 E4.9017
G1 X136.898 Y156.232 E6.3093
G1 X136.434 Y156.500 E6.3539
G1 X132.434 Y156.500 E6.6865
G1 X131.970 Y156.232 E6.7311
G1 X126.503 Y146.763 E7.6402
G1 X126.120 Y146.984 E7.6769
G1 X125.726 Y147.036 E7.7100
G1 X122.941 Y146.290 E7.9497
G1 X122.626 Y146.047 E7.9828
G1 X119.684 Y140.952 E8.4720
G1 X119.632 Y140.558 E8.5051
G1 X120.378 Y137.773 E8.7448
G1 X120.620 Y137.458 E8.7779
G1 X121.003 Y137.237 E8.8146
G1 X115.661 Y127.984 E9.7029
G1 X115.536 Y127.768 F3600
G1 X120.868 Y176.000 F12000
G92 E0
G1 X121.332 Y176.268 E0.0446 F3600
G1 X123.332 Y179.732 E0.3772
G1 X123.332 Y180.268 E0.4217
G1 X115.428 Y193.957 E1.7361
G1 X115.428 Y193.957 E1.7361
G1 X106.898 Y208.732 E3.1547
G1 X106.434 Y209.000 E3.1992
G1 X102.434 Y209.000 E3.5318
G1 X101.970 Y208.732 E3.5764
G1 X96.503 Y199.263 E4.4855
G1 X96.120 Y199.484 E4.5222
G1 X95.726 Y199.536 E4.5553
G1 X92.941 Y198.790 E4.7951
G1 X92.626 Y198.547 E4.8281
G1 X89.684 Y193.453 E5.3173
G1 X89.632 Y193.058 E5.3504
G1 X90.378 Y190.273 E5.5901
G1 X90.620 Y189.958 E5.6232
G1 X91.003 Y189.737 E5.6599
G1 X85.536 Y180.268 E6.5691
G1 X85.536 Y179.732 E6.6136
G1 X87.536 Y176.268 E6.9462
G1 X88.000 Y176.000 E6.9908
G1 X120.618 Y176.000 E9.7030
G1 X120.868 Y176.000 F3600
G1 X120.760 Y176.400 F12000
G92 E0
G1 X121.039 Y176.561 E0.0267 F3600
G1 X122.932 Y179.839 E0.3415
G1 X122.932 Y180.161 E0.3682
G1 X115.055 Y193.803 E1.6781
G1 X115.055 Y193.803 E1.6781
G1 X106.605 Y208.439 E3.0834
G1 X106.327 Y208.600 E3.1101
G1 X102.541 Y208.600 E3.4249
G1 X102.263 Y208.439 E3.4516
G1 X96.649 Y198.717 E4.3851
G1 X95.989 Y199.098 E4.4485
G1 X95.753 Y199.129 E4.4683
G1 X93.121 Y198.424 E4.6948
G1 X92.932 Y198.279 E4.7147
G1 X90.070 Y193.321 E5.1906
G1 X90.039 Y193.085 E5.2105
G1 X90.744 Y190.454 E5.4370
G1 X90.889 Y190.264 E5.4568
G1 X91.549 Y189.883 E5.5202
G1 X85.936 Y180.161 E6.4537
G1 X85.936 Y179.839 E6.4804
G1 X87.829 Y176.561 E6.7952
G1 X88.107 Y176.400 E6.8219
G1 X120.510 Y176.400 E9.5162
G1 X120.760 Y176.400 F3600
G1 X132.541 Y156.100 F12000
G92 E0
G1 X132.263 Y155.939 E0.0267 F3600
G1 X126.649 Y146.217 E0.9602
G1 X125.989 Y146.598 E1.0236
G1 X125.753 Y146.629 E1.0434
G1 X123.122 Y145.924 E1.2699
G1 X122.932 Y145.779 E1.2898
G1 X120.070 Y140.821 E1.7657
G1 X120.039 Y140.585 E1.7856
G1 X120.744 Y137.954 E2.0121
G1 X120.889 Y137.764 E2.0319
G1 X121.549 Y137.383 E2.0953
G1 X115.936 Y127.661 E3.0288
G1 X115.936 Y127.339 E3.0555
G1 X117.829 Y124.061 E3.3703
G1 X118.107 Y123.900 E3.3970
G1 X150.760 Y123.900 E6.1122
G1 X151.039 Y124.061 E6.1389
G1 X152.932 Y127.339 E6.4537
G1 X152.932 Y127.661 E6.4804
G1 X145.016 Y141.371 E7.7968
G1 X136.605 Y155.939 E9.1955
G1 X136.327 Y156.100 E9.2223
G1 X132.791 Y156.100 E9.5162
G1 X132.541 Y156.100 F3600
G1 X92.932 Y127.661 F12000
G92 E0
G1 X85.016 Y141.371 E1.3164 F3600
G1 X76.605 Y155.939 E2.7151
G1 X76.327 Y156.100 E2.7419
G1 X72.541 Y156.100 E3.0566
G1 X72.263 Y155.939 E3.0834
G1 X66.649 Y146.217 E4.0169
G1 X65.989 Y146.598 E4.0802
G1 X65.753 Y146.629 E4.1001
G1 X63.121 Y145.924 E4.3266
G1 X62.932 Y145.779 E4.3464
G1 X60.070 Y140.821 E4.8224
G1 X60.039 Y140.585 E4.8422
G1 X60.744 Y137.954 E5.0687
G1 X60.889 Y137.764 E5.0886
G1 X61.549 Y137.383 E5.1519
G1 X55.936 Y127.661 E6.0854
G1 X55.936 Y127.339 E6.1122
G1 X57.829 Y124.061 E6.4269
G1 X58.107 Y123.900 E6.4537
G1 X90.760 Y123.900 E9.1688
G1 X91.039 Y124.061 E9.1955
G1 X92.932 Y127.339 E9.5103
G1 X92.932 Y127.411 E9.5162
G1 X92.932 Y127.661 F3600
G1 X92.532 Y127.554 F12000
G92 E0
G1 X84.669 Y141.171 E1.3075 F3600
G1 X76.312 Y155.646 E2.6973
G1 X76.219 Y155.700 E2.7062
G1 X72.648 Y155.700 E3.0032
G1 X72.555 Y155.646 E3.0121
G1 X66.796 Y145.670 E3.9699
G1 X65.858 Y146.212 E4.0599
G1 X65.779 Y146.222 E4.0665
G1 X63.302 Y145.558 E4.2798
G1 X63.239 Y145.510 E4.2864
G1 X60.456 Y140.690 E4.7491
G1 X60.446 Y140.611 E4.7558
G1 X61.110 Y138.134 E4.9690
G1 X61.158 Y138.071 E4.9756
G1 X62.096 Y137.530 E5.0656
G1 X56.336 Y127.554 E6.0235
G1 X56.336 Y127.446 E6.0324
G1 X58.122 Y124.354 E6.3293
G1 X58.214 Y124.300 E6.3383
G1 X90.653 Y124.300 E9.0356
G1 X90.746 Y124.354 E9.0445
G1 X92.460 Y127.323 E9.3295
G1 X92.532 Y127.446 F3600
G1 X92.532 Y127.554 F3600
G1 X116.336 Y127.554 F12000
G92 E0
G1 X116.336 Y127.446 E0.0089 F3600
G1 X118.122 Y124.354 E0.3059
G1 X118.214 Y124.300 E0.3148
G1 X150.653 Y124.300 E3.0121
G1 X150.746 Y124.354 E3.0210
G1 X152.532 Y127.446 E3.3179
G1 X152.532 Y127.554 E3.3269
G1 X144.669 Y141.171 E4.6343
G1 X136.312 Y155.646 E6.0241
G1 X136.219 Y155.700 E6.0331
G1 X132.648 Y155.700 E6.3300
G1 X132.555 Y155.646 E6.3389
G1 X126.796 Y145.670 E7.2968
G1 X125.858 Y146.212 E7.3868
G1 X125.779 Y146.222 E7.3934
G1 X123.302 Y145.558 E7.6067
G1 X123.239 Y145.510 E7.6133
G1 X120.456 Y140.690 E8.0760
G1 X120.446 Y140.611 E8.0826
