; G-Code generated by Simplify3D(R) Version 3.0.2
; May 22, 2016 at 8:30:40 PM
; Settings Summary
;   processName,205
;   applyToModels,PLA_TEMP_TRI,PLA_TEMP_TRI(2),PLA_TEMP_TRI(3)
;   profileName,Fast Spidy
;   profileVersion,2016-05-19 15:26:53
;   baseProfile,Default
;   printMaterial,PLA
;   printQuality,High
;   printExtruders,
;   extruderName,Extruder 1
;   extruderToolheadNumber,0
;   extruderDiameter,0.4
;   extruderAutoWidth,0
;   extruderWidth,0.4
;   extrusionMultiplier,1
;   extruderUseRetract,1
;   extruderRetractionDistance,6
;   extruderExtraRestartDistance,0
;   extruderRetractionZLift,0
;   extruderRetractionSpeed,7200
;   extruderUseCoasting,1
;   extruderCoastingDistance,0.25
;   extruderUseWipe,0
;   extruderWipeDistance,5
;   primaryExtruder,0
;   layerHeight,0.2
;   topSolidLayers,0
;   bottomSolidLayers,0
;   perimeterOutlines,1
;   printPerimetersInsideOut,1
;   startPointOption,2
;   startPointOriginX,0
;   startPointOriginY,0
;   startPointOriginZ,300
;   sequentialIslands,0
;   spiralVaseMode,0
;   firstLayerHeightPercentage,80
;   firstLayerWidthPercentage,95
;   firstLayerUnderspeed,0.5
;   useRaft,1
;   raftExtruder,0
;   raftLayers,1
;   raftOffset,0
;   raftSeparationDistance,0.4
;   raftInfill,50
;   disableRaftBaseLayers,0
;   useSkirt,1
;   skirtExtruder,0
;   skirtLayers,1
;   skirtOutlines,6
;   skirtOffset,5
;   usePrimePillar,0
;   primePillarExtruder,999
;   primePillarWidth,12
;   primePillarLocation,7
;   primePillarSpeedMultiplier,1
;   useOozeShield,0
;   oozeShieldExtruder,999
;   oozeShieldOffset,2
;   oozeShieldOutlines,1
;   oozeShieldSidewallShape,1
;   oozeShieldSidewallAngle,30
;   oozeShieldSpeedMultiplier,1
;   infillExtruder,0
;   internalInfillPattern,Fast Honeycomb
;   externalInfillPattern,Rectilinear
;   infillPercentage,0
;   outlineOverlapPercentage,10
;   infillExtrusionWidthPercentage,100
;   minInfillLength,2
;   infillLayerInterval,1
;   infillAngles,0
;   overlapInfillAngles,0
;   generateSupport,0
;   supportExtruder,0
;   supportInfillPercentage,25
;   supportExtraInflation,0
;   denseSupportLayers,0
;   denseSupportInfillPercentage,25
;   supportLayerInterval,1
;   supportHorizontalPartOffset,0.3
;   supportUpperSeparationLayers,1
;   supportLowerSeparationLayers,1
;   supportType,0
;   supportGridSpacing,4
;   maxOverhangAngle,65
;   supportAngles,0
;   temperatureName,Extruder 1 Temperature,Heated Bed
;   temperatureNumber,0,0
;   temperatureSetpointCount,1,1
;   temperatureSetpointLayers,1,1
;   temperatureSetpointTemperatures,205,65
;   temperatureStabilizeAtStartup,1,1
;   temperatureHeatedBed,0,1
;   temperatureRelayBetweenLayers,0,0
;   temperatureRelayBetweenLoops,0,0
;   fanLayers,1,2
;   fanSpeeds,0,100
;   blipFanToFullPower,0
;   adjustSpeedForCooling,0
;   minSpeedLayerTime,15
;   minCoolingSpeedSlowdown,20
;   increaseFanForCooling,0
;   minFanLayerTime,45
;   maxCoolingFanSpeed,100
;   increaseFanForBridging,0
;   bridgingFanSpeed,100
;   use5D,1
;   relativeEdistances,0
;   allowEaxisZeroing,1
;   independentExtruderAxes,0
;   includeM10123,0
;   stickySupport,1
;   applyToolheadOffsets,0
;   gcodeXoffset,0
;   gcodeYoffset,0
;   gcodeZoffset,0
;   overrideMachineDefinition,1
;   machineTypeOverride,0
;   strokeXoverride,200
;   strokeYoverride,280
;   strokeZoverride,230
;   originOffsetXoverride,0
;   originOffsetYoverride,0
;   originOffsetZoverride,0
;   homeXdirOverride,-1
;   homeYdirOverride,-1
;   homeZdirOverride,-1
;   flipXoverride,1
;   flipYoverride,-1
;   flipZoverride,1
;   toolheadOffsets,0,0|0,0|0,0|0,0|0,0|0,0
;   overrideFirmwareConfiguration,1
;   firmwareTypeOverride,RepRap (Marlin/Repetier/Sprinter)
;   GPXconfigOverride,r2
;   baudRateOverride,115200
;   overridePrinterModels,0
;   printerModelsOverride
;   startingGcode,G28 ; home all axes,,G1 X0 Y10 F3000 ; wipe head,G1 X35 Y10 F3000 ; wipe head,G1 X35 Y12 F3000 ; wipe head,G1 X0 Y12 F3000 ; wipe head,,G1 X0 Y14 F3000 ; wipe head,G1 X35 Y14 F3000 ; wipe head,G1 X35 Y16 F3000 ; wipe head,G1 X0 Y16 F3000 ; wipe head,,G1 X0 Y18 F3000 ; wipe head,G1 X35 Y18 F3000 ; wipe head,G1 X35 Y20 F3000 ; wipe head,G1 X0 Y20 F3000 ; wipe head,,G1 X0 Y22 F3000 ; wipe head,G1 X35 Y22 F3000 ; wipe head
;   layerChangeGcode,
;   retractionGcode,
;   toolChangeGcode,
;   endingGcode,M104 S0 ; turn off extruder,M140 S0 ; turn off bed,,G91 ;relative positioning,G1 E-1 F300 ;retract the filament a bit before lifting the nozzle to release some of the pressure,;G1 Z+0.5 E-5 X-20 Y-20 F{travel_speed} ;move Z up a bit and retract filament even more,G1 Z200;Move straight up,G1 X190;Move to the extruder right,G1 Y280;Move to the bed forward,,M84 ;steppers off,G90;absolute positioning
;   createX3G,0
;   celebration,0
;   celebrationSong,Random Song
;   createMB5G,0
;   postProcessing,
;   defaultSpeed,7200
;   outlineUnderspeed,1
;   solidInfillUnderspeed,1
;   supportUnderspeed,1
;   rapidXYspeed,12000
;   rapidZspeed,12000
;   minBridgingArea,10
;   bridgingExtraInflation,1
;   bridgingExtrusionMultiplier,1.4
;   bridgingSpeedMultiplier,1.5
;   filamentDiameter,1.75
;   filamentPricePerKg,25
;   filamentDensity,1.25
;   useMinPrintHeight,1
;   minPrintHeight,0
;   useMaxPrintHeight,1
;   maxPrintHeight,10
;   useDiaphragm,0
;   diaphragmLayerInterval,20
;   robustSlicing,1
;   mergeAllIntoSolid,0
;   onlyRetractWhenCrossingOutline,1
;   retractBetweenLayers,1
;   useRetractionMinTravel,0
;   retractionMinTravel,3
;   retractWhileWiping,1
;   onlyWipeOutlines,0
;   avoidCrossingOutline,1
;   maxMovementDetourFactor,2
;   toolChangeRetractionDistance,12
;   toolChangeExtraRestartDistance,-0.5
;   toolChangeRetractionSpeed,600
;   allowThinWallGapFill,1
;   thinWallAllowedOverlapPercentage,10
;   horizontalSizeCompensation,0
G90
M82
M106 S0
M140 S65
M190 S65
M104 S205 T0
M109 S205 T0
G28 ; home all axes
G1 X0 Y10 F3000 ; wipe head
G1 X35 Y10 F3000 ; wipe head
G1 X35 Y12 F3000 ; wipe head
G1 X0 Y12 F3000 ; wipe head
G1 X0 Y14 F3000 ; wipe head
G1 X35 Y14 F3000 ; wipe head
G1 X35 Y16 F3000 ; wipe head
G1 X0 Y16 F3000 ; wipe head
G1 X0 Y18 F3000 ; wipe head
G1 X35 Y18 F3000 ; wipe head
G1 X35 Y20 F3000 ; wipe head
G1 X0 Y20 F3000 ; wipe head
G1 X0 Y22 F3000 ; wipe head
G1 X35 Y22 F3000 ; wipe head
G92 E0
G1 E-6.0000 F7200
G1 Z0.400 F12000
; layer 1, Z = 0.4
T0
; tool H0.500 W0.380
; skirt
G1 X46.656 Y110.950 F12000
G1 E0.0000 F2160
G92 E0
G1 X47.216 Y110.800 E0.0458 F3600
G1 X81.652 Y110.800 E2.7659
G1 X82.211 Y110.950 E2.8117
G1 X85.033 Y112.579 E3.0691
G1 X85.443 Y112.989 E3.1149
G1 X88.227 Y117.811 E3.5547
G1 X88.377 Y118.371 E3.6005
G1 X88.377 Y121.629 E3.8579
G1 X88.227 Y122.189 E3.9036
G1 X79.039 Y138.103 E5.3552
G1 X79.039 Y138.103 E5.3552
G1 X71.009 Y152.011 E6.6238
G1 X70.600 Y152.421 E6.6696
G1 X67.777 Y154.050 E6.9270
G1 X67.218 Y154.200 E6.9728
G1 X61.650 Y154.200 E7.4126
G1 X61.090 Y154.050 E7.4584
G1 X58.268 Y152.421 E7.7158
G1 X57.858 Y152.011 E7.7615
G1 X53.405 Y144.297 E8.4651
G1 X51.018 Y143.658 E8.6604
G1 X50.629 Y143.466 E8.6946
G1 X48.707 Y141.991 E8.8860
G1 X48.421 Y141.665 E8.9202
G1 X44.882 Y135.535 E9.4794
G1 X44.742 Y135.124 E9.5136
G1 X44.426 Y132.722 E9.7050
G1 X44.454 Y132.290 E9.7392
G1 X45.094 Y129.903 E9.9345
G1 X40.641 Y122.189 E10.6381
G1 X40.491 Y121.629 E10.6838
G1 X40.491 Y118.371 E10.9412
G1 X40.641 Y117.811 E10.9870
G1 X43.425 Y112.989 E11.4268
G1 X43.834 Y112.579 E11.4726
G1 X46.440 Y111.075 E11.7103
G1 X46.656 Y110.950 F3600
G1 X83.834 Y172.579 F12000
G92 E0
G1 X86.656 Y170.950 E0.2574 F3600
G1 X87.216 Y170.800 E0.3032
G1 X121.652 Y170.800 E3.0233
G1 X122.211 Y170.950 E3.0691
G1 X125.033 Y172.579 E3.3265
G1 X125.443 Y172.989 E3.3723
G1 X128.227 Y177.811 E3.8121
G1 X128.377 Y178.371 E3.8579
G1 X128.377 Y181.629 E4.1153
G1 X128.227 Y182.189 E4.1611
G1 X119.074 Y198.043 E5.6072
G1 X119.074 Y198.043 E5.6072
G1 X111.009 Y212.011 E6.8812
G1 X110.600 Y212.421 E6.9270
G1 X107.777 Y214.050 E7.1844
G1 X107.218 Y214.200 E7.2302
G1 X101.650 Y214.200 E7.6700
G1 X101.090 Y214.050 E7.7158
G1 X98.268 Y212.421 E7.9732
G1 X97.858 Y212.011 E8.0190
G1 X93.405 Y204.297 E8.7225
G1 X91.018 Y203.658 E8.9178
G1 X90.629 Y203.466 E8.9520
G1 X88.707 Y201.991 E9.1434
G1 X88.421 Y201.665 E9.1776
G1 X84.882 Y195.535 E9.7368
G1 X84.742 Y195.124 E9.7711
G1 X84.426 Y192.722 E9.9624
G1 X84.454 Y192.290 E9.9966
G1 X85.094 Y189.903 E10.1919
G1 X80.641 Y182.189 E10.8955
G1 X80.491 Y181.629 E10.9412
G1 X80.491 Y178.371 E11.1987
G1 X80.641 Y177.811 E11.2444
G1 X83.425 Y172.989 E11.6843
G1 X83.657 Y172.756 E11.7103
G1 X83.834 Y172.579 F3600
G1 X128.421 Y141.665 F12000
G92 E0
G1 X124.882 Y135.535 E0.5592 F3600
G1 X124.742 Y135.124 E0.5934
G1 X124.426 Y132.722 E0.7848
G1 X124.454 Y132.290 E0.8190
G1 X125.094 Y129.903 E1.0143
G1 X120.641 Y122.189 E1.7179
G1 X120.491 Y121.629 E1.7636
G1 X120.491 Y118.371 E2.0210
G1 X120.641 Y117.811 E2.0668
G1 X123.425 Y112.989 E2.5066
G1 X123.834 Y112.579 E2.5524
G1 X126.656 Y110.950 E2.8098
G1 X127.216 Y110.800 E2.8556
G1 X161.652 Y110.800 E5.5758
G1 X162.211 Y110.950 E5.6215
G1 X165.033 Y112.579 E5.8789
G1 X165.443 Y112.989 E5.9247
G1 X168.227 Y117.811 E6.3645
G1 X168.377 Y118.371 E6.4103
G1 X168.377 Y121.629 E6.6677
G1 X168.227 Y122.189 E6.7135
G1 X159.074 Y138.043 E8.1596
G1 X159.074 Y138.043 E8.1596
G1 X151.009 Y152.011 E9.4336
G1 X150.600 Y152.421 E9.4794
G1 X147.777 Y154.050 E9.7368
G1 X147.218 Y154.200 E9.7826
G1 X141.650 Y154.200 E10.2224
G1 X141.090 Y154.050 E10.2682
G1 X138.268 Y152.421 E10.5256
G1 X137.858 Y152.011 E10.5714
G1 X133.405 Y144.297 E11.2750
G1 X131.018 Y143.658 E11.4702
G1 X130.629 Y143.466 E11.5044
G1 X128.707 Y141.991 E11.6958
G1 X128.586 Y141.853 E11.7103
G1 X128.421 Y141.665 F3600
G1 X128.748 Y141.431 F12000
G92 E0
G1 X125.248 Y135.369 E0.5530 F3600
G1 X125.134 Y135.033 E0.5810
G1 X124.828 Y132.709 E0.7661
G1 X124.851 Y132.355 E0.7941
G1 X125.523 Y129.846 E0.9994
G1 X121.013 Y122.035 E1.7119
G1 X120.891 Y121.577 E1.7493
G1 X120.891 Y118.423 E1.9984
G1 X121.013 Y117.965 E2.0359
G1 X123.745 Y113.235 E2.4674
G1 X124.080 Y112.899 E2.5048
G1 X126.811 Y111.323 E2.7539
G1 X127.269 Y111.200 E2.7914
G1 X161.599 Y111.200 E5.5032
G1 X162.057 Y111.323 E5.5406
G1 X164.788 Y112.899 E5.7897
G1 X165.123 Y113.235 E5.8272
G1 X167.854 Y117.965 E6.2587
G1 X167.977 Y118.423 E6.2961
G1 X167.977 Y121.577 E6.5452
G1 X167.854 Y122.035 E6.5827
G1 X158.750 Y137.803 E8.0210
G1 X158.750 Y137.803 E8.0210
G1 X150.689 Y151.765 E9.2945
G1 X150.354 Y152.101 E9.3320
G1 X147.623 Y153.677 E9.5811
G1 X147.165 Y153.800 E9.6185
G1 X141.702 Y153.800 E10.0500
G1 X141.245 Y153.677 E10.0875
G1 X138.514 Y152.101 E10.3366
G1 X138.178 Y151.765 E10.3740
G1 X133.668 Y143.954 E11.0865
G1 X131.159 Y143.281 E11.2917
G1 X130.841 Y143.125 E11.3198
G1 X128.982 Y141.698 E11.5049
G1 X128.913 Y141.619 E11.5132
G1 X128.748 Y141.431 F3600
G1 X121.599 Y171.200 F12000
G92 E0
G1 X122.057 Y171.323 E0.0374 F3600
G1 X124.788 Y172.899 E0.2865
G1 X125.123 Y173.235 E0.3240
G1 X127.854 Y177.965 E0.7555
G1 X127.977 Y178.423 E0.7929
G1 X127.977 Y181.577 E1.0420
G1 X127.854 Y182.035 E1.0795
G1 X118.750 Y197.803 E2.5178
G1 X118.750 Y197.803 E2.5178
G1 X110.689 Y211.765 E3.7913
G1 X110.354 Y212.101 E3.8288
G1 X107.623 Y213.677 E4.0779
G1 X107.165 Y213.800 E4.1153
G1 X101.702 Y213.800 E4.5468
G1 X101.245 Y213.677 E4.5843
G1 X98.514 Y212.101 E4.8334
G1 X98.178 Y211.765 E4.8708
G1 X93.668 Y203.954 E5.5833
G1 X91.159 Y203.281 E5.7885
G1 X90.841 Y203.125 E5.8165
G1 X88.982 Y201.698 E6.0017
G1 X88.748 Y201.431 E6.0297
G1 X85.248 Y195.369 E6.5827
G1 X85.134 Y195.033 E6.6107
G1 X84.828 Y192.709 E6.7958
G1 X84.851 Y192.355 E6.8238
G1 X85.523 Y189.846 E7.0290
G1 X81.013 Y182.035 E7.7416
G1 X80.891 Y181.577 E7.7790
G1 X80.891 Y178.423 E8.0281
G1 X81.013 Y177.965 E8.0655
G1 X83.745 Y173.235 E8.4971
G1 X84.080 Y172.899 E8.5345
G1 X86.811 Y171.323 E8.7836
G1 X87.269 Y171.200 E8.8210
G1 X121.349 Y171.200 E11.5132
G1 X121.599 Y171.200 F3600
G1 X78.722 Y137.852 F12000
G92 E0
G1 X78.722 Y137.852 E0.0000 F3600
G1 X70.689 Y151.765 E1.2691
G1 X70.354 Y152.101 E1.3065
G1 X67.623 Y153.677 E1.5556
G1 X67.165 Y153.800 E1.5930
G1 X61.702 Y153.800 E2.0246
G1 X61.245 Y153.677 E2.0620
G1 X58.514 Y152.101 E2.3111
G1 X58.178 Y151.765 E2.3485
G1 X53.668 Y143.954 E3.0611
G1 X51.159 Y143.281 E3.2663
G1 X50.841 Y143.125 E3.2943
G1 X48.982 Y141.698 E3.4794
G1 X48.748 Y141.431 E3.5074
G1 X45.248 Y135.369 E4.0604
G1 X45.134 Y135.033 E4.0884
G1 X44.828 Y132.709 E4.2736
G1 X44.851 Y132.355 E4.3016
G1 X45.523 Y129.846 E4.5068
G1 X41.013 Y122.035 E5.2193
G1 X40.891 Y121.577 E5.2567
G1 X40.891 Y118.423 E5.5058
G1 X41.013 Y117.965 E5.5433
G1 X43.745 Y113.235 E5.9748
G1 X44.080 Y112.899 E6.0122
G1 X46.811 Y111.323 E6.2613
G1 X47.269 Y111.200 E6.2988
G1 X81.599 Y111.200 E9.0106
G1 X82.057 Y111.323 E9.0481
G1 X84.788 Y112.899 E9.2972
G1 X85.123 Y113.235 E9.3346
G1 X87.854 Y117.966 E9.7661
G1 X87.977 Y118.423 E9.8036
G1 X87.977 Y121.577 E10.0527
G1 X87.854 Y122.035 E10.0901
G1 X78.847 Y137.636 E11.5132
G1 X78.722 Y137.852 F3600
G1 X78.508 Y137.423 F12000
G92 E0
G1 X70.369 Y151.520 E1.2858 F3600
G1 X70.108 Y151.781 E1.3149
G1 X67.469 Y153.305 E1.5557
G1 X67.113 Y153.400 E1.5848
G1 X61.755 Y153.400 E2.0080
G1 X61.399 Y153.305 E2.0371
G1 X58.759 Y151.781 E2.2779
G1 X58.499 Y151.520 E2.3070
G1 X53.932 Y143.610 E3.0285
G1 X51.301 Y142.905 E3.2437
G1 X51.053 Y142.783 E3.2654
G1 X49.256 Y141.405 E3.4444
G1 X49.075 Y141.197 E3.4661
G1 X45.614 Y135.203 E4.0129
G1 X45.525 Y134.942 E4.0347
G1 X45.230 Y132.696 E4.2136
G1 X45.248 Y132.421 E4.2354
G1 X45.953 Y129.790 E4.4506
G1 X41.386 Y121.880 E5.1720
G1 X41.291 Y121.524 E5.2011
G1 X41.291 Y118.476 E5.4419
G1 X41.386 Y118.120 E5.4710
G1 X44.065 Y113.480 E5.8943
G1 X44.325 Y113.219 E5.9234
G1 X46.965 Y111.695 E6.1641
G1 X47.321 Y111.600 E6.1933
G1 X81.546 Y111.600 E8.8968
G1 X81.902 Y111.695 E8.9259
G1 X84.542 Y113.219 E9.1667
G1 X84.803 Y113.480 E9.1958
G1 X87.482 Y118.120 E9.6190
G1 X87.577 Y118.476 E9.6481
G1 X87.577 Y121.524 E9.8889
G1 X87.482 Y121.880 E9.9180
G1 X78.633 Y137.207 E11.3160
G1 X78.508 Y137.423 F3600
G1 X87.321 Y171.600 F12000
G92 E0
G1 X121.546 Y171.600 E2.7035 F3600
G1 X121.902 Y171.695 E2.7327
G1 X124.542 Y173.219 E2.9734
G1 X124.803 Y173.480 E3.0025
G1 X127.482 Y178.120 E3.4258
G1 X127.577 Y178.476 E3.4549
G1 X127.577 Y181.524 E3.6957
G1 X127.482 Y181.880 E3.7248
G1 X118.427 Y197.563 E5.1553
G1 X118.427 Y197.563 E5.1553
G1 X110.369 Y211.520 E6.4283
G1 X110.108 Y211.781 E6.4574
G1 X107.469 Y213.305 E6.6982
G1 X107.113 Y213.400 E6.7273
G1 X101.755 Y213.400 E7.1505
G1 X101.399 Y213.305 E7.1796
G1 X98.759 Y211.781 E7.4204
G1 X98.499 Y211.520 E7.4495
G1 X93.932 Y203.610 E8.1710
G1 X91.301 Y202.905 E8.3862
G1 X91.053 Y202.783 E8.4080
G1 X89.256 Y201.405 E8.5869
G1 X89.075 Y201.197 E8.6087
G1 X85.614 Y195.203 E9.1554
G1 X85.525 Y194.942 E9.1772
G1 X85.230 Y192.696 E9.3561
G1 X85.248 Y192.421 E9.3779
G1 X85.953 Y189.790 E9.5931
G1 X81.386 Y181.880 E10.3145
G1 X81.291 Y181.524 E10.3437
G1 X81.291 Y178.476 E10.5844
G1 X81.386 Y178.120 E10.6136
G1 X84.065 Y173.480 E11.0368
G1 X84.325 Y173.219 E11.0659
G1 X86.965 Y171.695 E11.3067
G1 X87.080 Y171.665 E11.3160
G1 X87.321 Y171.600 F3600
G1 X129.075 Y141.197 F12000
G92 E0
G1 X125.614 Y135.203 E0.5468 F3600
G1 X125.525 Y134.942 E0.5686
G1 X125.230 Y132.696 E0.7475
G1 X125.248 Y132.421 E0.7692
G1 X125.953 Y129.790 E0.9844
G1 X121.386 Y121.880 E1.7059
G1 X121.291 Y121.524 E1.7350
G1 X121.291 Y118.476 E1.9758
G1 X121.386 Y118.120 E2.0049
G1 X124.065 Y113.480 E2.4281
G1 X124.325 Y113.219 E2.4572
